Domangcho_Logo_White.svg

<svg xmlns="http://www.w3.org/2000/svg" xml:space="preserve" style="fill-rule:evenodd;clip-rule:evenodd;stroke-linejoin:round;stroke-miterlimit:2" viewBox="0 0 1487 305"><path d="M0 241.997c0-10.985 2.692-20.355 8.077-28.109 5.385-7.755 13.839-14.109 25.363-19.063 11.524-4.954 26.332-8.562 44.425-10.823 18.094-2.262 39.849-3.393 65.265-3.393 25.417 0 47.172 1.131 65.265 3.393 18.093 2.261 32.902 5.869 44.425 10.823 11.524 4.954 19.978 11.308 25.363 19.063 5.385 7.754 8.078 17.124 8.078 28.109 0 10.985-2.693 20.355-8.078 28.109-5.385 7.754-13.839 14.108-25.363 19.062-11.523 4.955-26.332 8.562-44.425 10.824-18.093 2.262-39.848 3.393-65.265 3.393-25.416 0-47.171-1.131-65.265-3.393-18.093-2.262-32.901-5.869-44.425-10.824-11.524-4.954-19.978-11.308-25.363-19.062C2.692 262.352 0 252.982 0 241.997Zm189.333 5.492c5.169 0 7.754-1.938 7.754-5.815 0-3.662-2.585-5.493-7.754-5.493h-71.404c-4.308 0-7.916-.377-10.824-1.131-2.907-.754-6.408-1.777-10.5-3.069-2.154-.646-3.931-.485-5.331.485-1.4.969-2.1 2.423-2.1 4.361 0 2.8 1.4 4.739 4.2 5.816 5.385 1.939 9.747 3.231 13.085 3.877 3.339.646 7.701.969 13.085.969h69.789ZM3.231 58.157c0-36.617 18.309-54.926 54.926-54.926h71.08c36.618 0 54.926 18.309 54.926 54.926v54.603c0 11.631-1.508 21.324-4.523 29.078-3.016 7.754-8.077 14.054-15.186 18.901-7.108 4.846-16.423 8.293-27.947 10.339-11.524 2.046-25.794 3.069-42.81 3.069-17.016 0-31.286-1.023-42.81-3.069-11.523-2.046-20.839-5.493-27.947-10.339-7.108-4.847-12.17-11.147-15.186-18.901-3.015-7.754-4.523-17.447-4.523-29.078V58.157Zm96.928 10.985c0-5.385-2.154-8.077-6.462-8.077s-6.462 2.692-6.462 8.077v22.94c0 6.892.969 11.739 2.908 14.539 1.939 2.8 5.816 5.277 11.631 7.431l9.047 3.231c2.369.861 4.362.808 5.977-.162 1.616-.969 2.316-2.423 2.1-4.361-.215-2.585-1.4-4.308-3.554-5.17l-9.046-3.231c-4.093-1.508-6.139-4.954-6.139-10.339V69.142Zm169.947 43.941c-2.154-1.508-4.146-1.939-5.977-1.293-1.831.646-2.747 1.939-2.747 3.877 0 1.724 1.077 3.339 3.231 4.847l10.339 6.785c3.016 2.154 5.116 4.308 6.301 6.462 1.184 2.154 1.777 5.277 1.777 9.369v3.231c0 9.908-3.662 17.501-10.986 22.778-7.323 5.277-17.985 7.916-31.986 7.916-14 0-24.663-2.639-31.986-7.916-7.323-5.277-10.985-12.87-10.985-22.778V30.694c0-9.908 3.662-17.501 10.985-22.778C215.395 2.639 226.058 0 240.058 0c14.001 0 24.663 2.639 31.986 7.916 7.324 5.277 10.986 12.87 10.986 22.778v16.478c2.369-.431 4.415-.808 6.138-1.131a28.017 28.017 0 0 1 5.17-.485c8.4 0 14.216 2.8 17.447 8.401 3.231 5.6 4.846 15.508 4.846 29.724 0 25.632-8.185 38.448-24.555 38.448-5.385 0-11.416-2.154-18.093-6.462l-3.877-2.584Zm202.579-56.542c0 7.97-.7 15.94-2.1 23.909-1.4 7.97-3.177 16.155-5.331 24.555a17.168 17.168 0 0 1 3.554-.969c1.293-.215 2.8-.323 4.524-.323 1.507 0 3.177.161 5.008.485 1.83.323 3.93.7 6.3 1.13V29.725C484.64 9.908 495.625 0 517.595 0c21.971 0 32.956 9.908 32.956 29.725v243.612c0 19.816-10.985 29.724-32.956 29.724-21.97 0-32.955-9.908-32.955-29.724v-67.85c0-4.738.7-8.562 2.1-11.47 1.4-2.907 3.931-5.546 7.593-7.915l8.723-5.816c2.154-1.508 3.231-3.231 3.231-5.169.215-2.37-.646-3.931-2.585-4.685-1.938-.754-3.984-.485-6.138.807l-3.878 2.585c-6.246 4.308-12.277 6.462-18.093 6.462-13.139 0-21.001-8.077-23.586-24.232l-28.109 108.559c-1.938 7.755-4.361 14.216-7.269 19.386-2.908 5.169-6.354 9.316-10.339 12.439-3.985 3.123-8.724 5.331-14.216 6.623-5.493 1.293-11.793 1.939-18.901 1.939-6.893 0-12.493-.915-16.801-2.746-4.308-1.831-7.431-4.524-9.37-8.078-1.938-3.554-2.854-7.969-2.746-13.246.108-5.278 1.023-11.255 2.746-17.932l37.156-144.1c1.077-4.523 2.423-7.7 4.039-9.531 1.615-1.831 3.93-3.285 6.946-4.362l21.97-8.723c3.447-1.293 5.17-3.554 5.17-6.785 0-2.37-.862-3.985-2.585-4.847-1.723-.861-3.769-.753-6.139.324l-17.124 6.784c-5.385 2.154-10.662 3.231-15.831 3.231h-7.754c-28.863 0-43.295-15.293-43.295-45.879S343.987 3.231 372.85 3.231h38.448c11.2 0 20.731.862 28.593 2.585 7.862 1.723 14.217 4.577 19.063 8.562 4.846 3.984 8.346 9.423 10.5 16.316 2.154 6.893 3.231 15.508 3.231 25.847Zm87.236-26.816C559.921 9.908 570.906 0 592.876 0s32.956 9.908 32.956 29.725v243.612c0 19.816-10.986 29.724-32.956 29.724-21.97 0-32.955-9.908-32.955-29.724V29.725Zm95.958 21.97c0-8.831.862-16.316 2.585-22.455 1.723-6.139 4.523-11.147 8.4-15.024 3.878-3.877 8.885-6.677 15.024-8.4 6.139-1.723 13.624-2.585 22.455-2.585h92.082c15.077 0 26.116 3.392 33.117 10.177 7 6.785 10.5 18.147 10.5 34.087 0 15.939-3.5 27.301-10.5 34.086-7.001 6.785-18.04 10.177-33.117 10.177h-38.448c-4.954 0-8.347.916-10.178 2.747-1.831 1.831-2.746 5.223-2.746 10.177v88.528c0 3.446-1.723 4.631-5.17 3.554l-7.108-2.262c-2.584-.861-4.684-.861-6.3 0-1.615.862-2.423 2.477-2.423 4.847 0 3.23 1.615 5.384 4.846 6.461l10.016 3.554c3.447 1.293 8.293 1.939 14.539 1.939h46.203c15.077 0 26.116 3.392 33.117 10.177 7 6.785 10.5 18.147 10.5 34.087 0 15.939-3.5 27.301-10.5 34.086-7.001 6.785-18.04 10.178-33.117 10.178h-95.313c-8.831 0-16.316-.862-22.455-2.585-6.139-1.723-11.146-4.524-15.024-8.401-3.877-3.877-6.677-8.885-8.4-15.024-1.723-6.138-2.585-13.623-2.585-22.454V51.695Zm154.439 139.576c-14.216 0-24.825-3.285-31.825-9.854-7-6.57-10.5-16.963-10.5-31.179 0-14.216 3.5-24.609 10.5-31.178 7-6.57 17.609-9.854 31.825-9.854h43.94V42.002c0-14.647 3.447-25.309 10.339-31.986C871.49 3.339 882.691 0 898.199 0c15.078 0 26.171 3.392 33.279 10.177 7.108 6.785 10.662 17.394 10.662 31.825v219.057c0 14.432-3.554 25.04-10.662 31.825-7.108 6.785-18.201 10.177-33.279 10.177-15.508 0-26.709-3.338-33.602-10.015-6.892-6.678-10.339-17.34-10.339-31.987v-44.587c0-4.738.701-8.562 2.101-11.469 1.4-2.908 3.931-5.547 7.592-7.916l8.724-5.816c2.154-1.508 3.231-3.231 3.231-5.169 0-2.37-.916-3.931-2.747-4.685-1.83-.754-3.823-.485-5.977.808l-3.877 2.584c-6.677 4.308-12.708 6.462-18.093 6.462h-34.894Z" style="fill:#fff"/></svg>

<?xml version="1.0" encoding="UTF-8" standalone="no"?>
<!DOCTYPE svg PUBLIC "-//W3C//DTD SVG 1.1//EN" "http://www.w3.org/Graphics/SVG/1.1/DTD/svg11.dtd">
<svg width="100%" height="100%" viewBox="0 0 1487 305" version="1.1" xmlns="http://www.w3.org/2000/svg" xmlns:xlink="http://www.w3.org/1999/xlink" xml:space="preserve" xmlns:serif="http://www.serif.com/" style="fill-rule:evenodd;clip-rule:evenodd;stroke-linejoin:round;stroke-miterlimit:2;">
    <path d="M0,241.997C0,231.012 2.692,221.642 8.077,213.888C13.462,206.133 21.916,199.779 33.44,194.825C44.964,189.871 59.772,186.263 77.865,184.002C95.959,181.74 117.714,180.609 143.13,180.609C168.547,180.609 190.302,181.74 208.395,184.002C226.488,186.263 241.297,189.871 252.82,194.825C264.344,199.779 272.798,206.133 278.183,213.888C283.568,221.642 286.261,231.012 286.261,241.997C286.261,252.982 283.568,262.352 278.183,270.106C272.798,277.86 264.344,284.214 252.82,289.168C241.297,294.123 226.488,297.73 208.395,299.992C190.302,302.254 168.547,303.385 143.13,303.385C117.714,303.385 95.959,302.254 77.865,299.992C59.772,297.73 44.964,294.123 33.44,289.168C21.916,284.214 13.462,277.86 8.077,270.106C2.692,262.352 0,252.982 0,241.997ZM189.333,247.489C194.502,247.489 197.087,245.551 197.087,241.674C197.087,238.012 194.502,236.181 189.333,236.181L117.929,236.181C113.621,236.181 110.013,235.804 107.105,235.05C104.198,234.296 100.697,233.273 96.605,231.981C94.451,231.335 92.674,231.496 91.274,232.466C89.874,233.435 89.174,234.889 89.174,236.827C89.174,239.627 90.574,241.566 93.374,242.643C98.759,244.582 103.121,245.874 106.459,246.52C109.798,247.166 114.16,247.489 119.544,247.489L189.333,247.489ZM3.231,58.157C3.231,21.54 21.54,3.231 58.157,3.231L129.237,3.231C165.855,3.231 184.163,21.54 184.163,58.157L184.163,112.76C184.163,124.391 182.655,134.084 179.64,141.838C176.624,149.592 171.563,155.892 164.454,160.739C157.346,165.585 148.031,169.032 136.507,171.078C124.983,173.124 110.713,174.147 93.697,174.147C76.681,174.147 62.411,173.124 50.887,171.078C39.364,169.032 30.048,165.585 22.94,160.739C15.832,155.892 10.77,149.592 7.754,141.838C4.739,134.084 3.231,124.391 3.231,112.76L3.231,58.157ZM100.159,69.142C100.159,63.757 98.005,61.065 93.697,61.065C89.389,61.065 87.235,63.757 87.235,69.142L87.235,92.082C87.235,98.974 88.204,103.821 90.143,106.621C92.082,109.421 95.959,111.898 101.774,114.052L110.821,117.283C113.19,118.144 115.183,118.091 116.798,117.121C118.414,116.152 119.114,114.698 118.898,112.76C118.683,110.175 117.498,108.452 115.344,107.59L106.298,104.359C102.205,102.851 100.159,99.405 100.159,94.02L100.159,69.142ZM270.106,113.083C267.952,111.575 265.96,111.144 264.129,111.79C262.298,112.436 261.382,113.729 261.382,115.667C261.382,117.391 262.459,119.006 264.613,120.514L274.952,127.299C277.968,129.453 280.068,131.607 281.253,133.761C282.437,135.915 283.03,139.038 283.03,143.13L283.03,146.361C283.03,156.269 279.368,163.862 272.044,169.139C264.721,174.416 254.059,177.055 240.058,177.055C226.058,177.055 215.395,174.416 208.072,169.139C200.749,163.862 197.087,156.269 197.087,146.361L197.087,30.694C197.087,20.786 200.749,13.193 208.072,7.916C215.395,2.639 226.058,0 240.058,0C254.059,0 264.721,2.639 272.044,7.916C279.368,13.193 283.03,20.786 283.03,30.694L283.03,47.172C285.399,46.741 287.445,46.364 289.168,46.041C290.892,45.718 292.615,45.556 294.338,45.556C302.738,45.556 308.554,48.356 311.785,53.957C315.016,59.557 316.631,69.465 316.631,83.681C316.631,109.313 308.446,122.129 292.076,122.129C286.691,122.129 280.66,119.975 273.983,115.667L270.106,113.083ZM472.685,56.541C472.685,64.511 471.985,72.481 470.585,80.45C469.185,88.42 467.408,96.605 465.254,105.005C466.331,104.575 467.516,104.251 468.808,104.036C470.101,103.821 471.608,103.713 473.332,103.713C474.839,103.713 476.509,103.874 478.34,104.198C480.17,104.521 482.27,104.898 484.64,105.328L484.64,29.725C484.64,9.908 495.625,0 517.595,0C539.566,0 550.551,9.908 550.551,29.725L550.551,273.337C550.551,293.153 539.566,303.061 517.595,303.061C495.625,303.061 484.64,293.153 484.64,273.337L484.64,205.487C484.64,200.749 485.34,196.925 486.74,194.017C488.14,191.11 490.671,188.471 494.333,186.102L503.056,180.286C505.21,178.778 506.287,177.055 506.287,175.117C506.502,172.747 505.641,171.186 503.702,170.432C501.764,169.678 499.718,169.947 497.564,171.239L493.686,173.824C487.44,178.132 481.409,180.286 475.593,180.286C462.454,180.286 454.592,172.209 452.007,156.054L423.898,264.613C421.96,272.368 419.537,278.829 416.629,283.999C413.721,289.168 410.275,293.315 406.29,296.438C402.305,299.561 397.566,301.769 392.074,303.061C386.581,304.354 380.281,305 373.173,305C366.28,305 360.68,304.085 356.372,302.254C352.064,300.423 348.941,297.73 347.002,294.176C345.064,290.622 344.148,286.207 344.256,280.93C344.364,275.652 345.279,269.675 347.002,262.998L384.158,118.898C385.235,114.375 386.581,111.198 388.197,109.367C389.812,107.536 392.127,106.082 395.143,105.005L417.113,96.282C420.56,94.989 422.283,92.728 422.283,89.497C422.283,87.127 421.421,85.512 419.698,84.65C417.975,83.789 415.929,83.897 413.559,84.974L396.435,91.758C391.05,93.912 385.773,94.989 380.604,94.989L372.85,94.989C343.987,94.989 329.555,79.696 329.555,49.11C329.555,18.524 343.987,3.231 372.85,3.231L411.298,3.231C422.498,3.231 432.029,4.093 439.891,5.816C447.753,7.539 454.108,10.393 458.954,14.378C463.8,18.362 467.3,23.801 469.454,30.694C471.608,37.587 472.685,46.202 472.685,56.541ZM559.921,29.725C559.921,9.908 570.906,0 592.876,0C614.846,0 625.832,9.908 625.832,29.725L625.832,273.337C625.832,293.153 614.846,303.061 592.876,303.061C570.906,303.061 559.921,293.153 559.921,273.337L559.921,29.725ZM655.879,51.695C655.879,42.864 656.741,35.379 658.464,29.24C660.187,23.101 662.987,18.093 666.864,14.216C670.742,10.339 675.749,7.539 681.888,5.816C688.027,4.093 695.512,3.231 704.343,3.231L796.425,3.231C811.502,3.231 822.541,6.623 829.542,13.408C836.542,20.193 840.042,31.555 840.042,47.495C840.042,63.434 836.542,74.796 829.542,81.581C822.541,88.366 811.502,91.758 796.425,91.758L757.977,91.758C753.023,91.758 749.63,92.674 747.799,94.505C745.968,96.336 745.053,99.728 745.053,104.682L745.053,193.21C745.053,196.656 743.33,197.841 739.883,196.764L732.775,194.502C730.191,193.641 728.091,193.641 726.475,194.502C724.86,195.364 724.052,196.979 724.052,199.349C724.052,202.579 725.667,204.733 728.898,205.81L738.914,209.364C742.361,210.657 747.207,211.303 753.453,211.303L799.656,211.303C814.733,211.303 825.772,214.695 832.773,221.48C839.773,228.265 843.273,239.627 843.273,255.567C843.273,271.506 839.773,282.868 832.773,289.653C825.772,296.438 814.733,299.831 799.656,299.831L704.343,299.831C695.512,299.831 688.027,298.969 681.888,297.246C675.749,295.523 670.742,292.722 666.864,288.845C662.987,284.968 660.187,279.96 658.464,273.821C656.741,267.683 655.879,260.198 655.879,251.367L655.879,51.695ZM810.318,191.271C796.102,191.271 785.493,187.986 778.493,181.417C771.493,174.847 767.993,164.454 767.993,150.238C767.993,136.022 771.493,125.629 778.493,119.06C785.493,112.49 796.102,109.206 810.318,109.206L854.258,109.206L854.258,42.002C854.258,27.355 857.705,16.693 864.597,10.016C871.49,3.339 882.691,0 898.199,0C913.277,0 924.37,3.392 931.478,10.177C938.586,16.962 942.14,27.571 942.14,42.002L942.14,261.059C942.14,275.491 938.586,286.099 931.478,292.884C924.37,299.669 913.277,303.061 898.199,303.061C882.691,303.061 871.49,299.723 864.597,293.046C857.705,286.368 854.258,275.706 854.258,261.059L854.258,216.472C854.258,211.734 854.959,207.91 856.359,205.003C857.759,202.095 860.29,199.456 863.951,197.087L872.675,191.271C874.829,189.763 875.906,188.04 875.906,186.102C875.906,183.732 874.99,182.171 873.159,181.417C871.329,180.663 869.336,180.932 867.182,182.225L863.305,184.809C856.628,189.117 850.597,191.271 845.212,191.271L810.318,191.271Z" style="fill:white;"/>
</svg>
